X:1
T:Stabat Mater (Knight), 87.87 D
T:H. Knight, before 1906
T:Stabat Mater (Knight), 87.87 D
T:Public Domain
C:H. Knight, before 1906
Z:Public Domain
%%score ( 1 2 ) ( 3 4 )
L:1/8
M:4/4
K:Eb
V:1 treble 
V:2 treble 
V:3 bass 
V:4 bass 
V:1
 [GB]2 [FB]2 [Ee]2 [FB]2 | [EG]2 [FA]2 [EG]2 [DF]2 | [CF]2 [CG]2 [DF]2 [B,D]2 | %3
 [CE]2 [CF]2 [CE]2 [B,D]2 | [B,E]2 [DF]2 [EG]2 [FB]2 | (EG)(FE) [DB]4 | [Ee]2 [Ed]2 [Ec]2 [EB]2 | %7
 [EG]2 ([GB][FA]) [EG]2 [DF]2 | [_DG]3 [DG] [DG]2 [CA]2 | [E=A]3 [EA] [EA]2 [DB]2 | %10
 [EF]2 [Dc]2 [EB]2 [EG]2 | [EA]2 [DB]2 [EG]4 |] %12
V:2
 x8 | x8 | x8 | x8 | x8 | B2 =A2 x4 | x8 | x8 | x8 | x8 | x8 | x8 |] %12
V:3
 [E,B,]2 [D,B,]2 [C,C]2 [D,B,]2 | [E,B,]2 [A,,C]2 [B,,B,]2 [B,,B,]2 | %2
 [E,=A,]2 [E,A,]2 [D,B,]2 [G,B,]2 | [F,B,]2 [F,,=A,]2 [B,,A,]2 [B,,B,]2 | %4
 [G,B,]2 [F,B,]2 [E,B,]2 [D,B,]2 | (G,E)(DC) (B,2 A,2) | ([G,B,][E,G,])([F,A,][G,B,]) A,2 [G,B,]2 | %7
 [C,C]2 [A,,C]2 [B,,B,]2 [B,,B,]2 | [=E,B,]3 [E,B,] [E,B,]2 [F,A,]2 | %9
 [^F,C]3 [F,C] [F,C]2 [G,B,]2 | [=A,C]2 [_A,B,]2 [G,B,]2 C2 | [F,C]2 [B,,B,]2 [E,B,]4 |] %12
V:4
 x8 | x8 | x8 | x8 | x8 | C,2 F,2 B,4 | x4 A,2 x2 | x8 | x8 | x8 | x6 C2 | x8 |] %12

